build/system/StreamingOutline.svg

<svg xmlns="http://www.w3.org/2000/svg" fill="none" viewBox="0 0 24 24" focusable="false"><path d="M0 0H24V24H0z"/><path fill="#74767B" fill-rule="evenodd" d="M21 8C21 6.34326 19.6567 5 18 5L6 5C4.34326 5 3 6.34326 3 8L3 8.3501C3 8.70898 3.29102 9 3.6499 9C4.00879 9 4.2998 8.70898 4.2998 8.3501L4.2998 8C4.2998 7.06104 5.06104 6.30005 6 6.30005L18 6.30005C18.939 6.30005 19.7002 7.06104 19.7002 8L19.7002 16C19.7002 16.939 18.939 17.7 18 17.7L13.3501 17.7C12.9912 17.7 12.7002 17.991 12.7002 18.3501C12.7002 18.709 12.9912 19 13.3501 19L18 19C19.6567 19 21 17.6567 21 16L21 8ZM3 10.9497C3 10.5908 3.29102 10.2998 3.6499 10.2998C8.07861 10.2998 11.6689 13.8899 11.6689 18.3186C11.6689 18.6777 11.3779 18.9688 11.019 18.9688C10.6597 18.9688 10.3687 18.6777 10.3687 18.3186C10.3687 14.6079 7.36084 11.5999 3.6499 11.5999C3.29102 11.5999 3 11.3088 3 10.9497ZM3 13.7312C3 13.3721 3.29102 13.0813 3.6499 13.0813C6.54248 13.0813 8.8877 15.426 8.8877 18.3186C8.8877 18.6777 8.59668 18.9688 8.2373 18.9688C7.87842 18.9688 7.5874 18.6777 7.5874 18.3186C7.5874 16.144 5.82471 14.3811 3.6499 14.3811C3.29102 14.3811 3 14.0901 3 13.7312ZM4.38477 18.9553C5.14258 18.9553 5.75635 18.3411 5.75635 17.5835C5.75635 16.8259 5.14258 16.2119 4.38477 16.2119C3.62744 16.2119 3.01318 16.8259 3.01318 17.5835C3.01318 18.3411 3.62744 18.9553 4.38477 18.9553Z"/></svg>

<svg xmlns="http://www.w3.org/2000/svg" fill="none" viewBox="0 0 24 24" focusable="false"><path fill="#74767B" fill-rule="evenodd" d="M21 8c0-1.66-1.35-3-3-3H6C4.34 5 3 6.34 3 8v.35c0 .35.29.65.64.65.36 0 .65-.3.65-.65V8c0-.94.77-1.7 1.71-1.7h12c.93 0 1.7.76 1.7 1.7v8c0 .93-.77 1.7-1.7 1.7h-4.65c-.36 0-.65.29-.65.65 0 .35.29.65.65.65H18c1.65 0 3-1.35 3-3zM3.64 10.29c-.35 0-.64.3-.64.65 0 .36.29.65.64.65 3.72 0 6.72 3.01 6.72 6.72 0 .36.29.65.65.65s.65-.29.65-.65a8.02 8.02 0 0 0-8.02-8.02M3 13.73c0-.36.29-.65.64-.65 2.9 0 5.24 2.34 5.24 5.23 0 .36-.29.65-.65.65s-.65-.29-.65-.65c0-2.17-1.76-3.93-3.94-3.93-.35 0-.64-.29-.64-.65m1.38 5.22c.76 0 1.37-.61 1.37-1.37s-.61-1.37-1.37-1.37-1.37.61-1.37 1.37.61 1.37 1.37 1.37"/></svg>
